Images/3.svg

<svg width="123" height="182" viewBox="0 0 123 182" fill="none" xmlns="http://www.w3.org/2000/svg">
<g filter="url(#filter0_g_1556_381)">
<path d="M107.622 137.249C110.182 123.139 105.482 110.049 96.4915 100.579C87.5015 91.1087 74.1615 85.7687 60.3115 87.1887C56.9015 87.5387 54.2416 85.7687 54.0116 82.6387C53.7816 79.5087 56.0116 77.5987 59.4516 77.1987C78.0216 75.0087 96.7115 69.2787 103.652 51.5787C109.782 35.9287 98.5916 23.5387 82.7016 18.8187C68.5416 14.6087 53.8016 12.8787 39.2616 14.9687C30.1916 16.2787 22.5515 20.9387 17.5315 28.2887C11.1015 37.6887 17.1715 46.3787 9.77155 47.3187C1.07155 48.4287 1.57155 27.7587 15.6516 15.3087C32.5716 0.338704 60.1915 2.7387 82.1515 8.2687C90.1615 10.2787 97.2215 13.9487 103.712 18.7287C113.062 26.8587 117.262 38.6887 114.182 50.9787C110.612 65.2287 99.8916 75.6687 85.6416 81.2087C108.242 90.9687 121.192 113.269 117.662 137.499C114.772 157.339 99.2115 173.559 79.3115 177.079C69.1515 178.879 58.9815 177.789 49.2515 175.269C31.9915 170.789 18.7616 158.689 12.0716 142.289C11.0216 139.709 12.3715 136.529 14.5315 135.699C16.9115 134.779 20.0016 135.789 21.1116 138.369C30.6216 160.309 50.7216 169.849 74.4816 167.769C90.6316 166.349 104.632 153.709 107.622 137.259V137.249Z" fill="#0B3048"/>
</g>
<defs>
<filter id="filter0_g_1556_381" x="0" y="0" width="122.237" height="181.97" filterUnits="userSpaceOnUse" color-interpolation-filters="sRGB">
<feFlood flood-opacity="0" result="BackgroundImageFix"/>
<feBlend mode="normal" in="SourceGraphic" in2="BackgroundImageFix" result="shape"/>
<feTurbulence type="fractalNoise" baseFrequency="0.031746033579111099 0.031746033579111099" numOctaves="3" seed="640" />
<feDisplacementMap in="shape" scale="8" xChannelSelector="R" yChannelSelector="G" result="displacedImage" width="100%" height="100%" />
<feMerge result="effect1_texture_1556_381">
<feMergeNode in="displacedImage"/>
</feMerge>
</filter>
</defs>
</svg>

<svg xmlns="http://www.w3.org/2000/svg" width="123" height="182" fill="none" viewBox="0 0 123 182"><g filter="url(#a)"><path fill="#0b3048" d="M107.62 137.25c2.56-14.11-2.14-27.2-11.13-36.67a43.9 43.9 0 0 0-36.18-13.4c-3.4.36-6.07-1.41-6.3-4.54s2-5.04 5.44-5.44c18.57-2.2 37.26-7.92 44.2-25.62 6.13-15.65-5.06-28.04-20.95-32.76-14.16-4.21-28.9-5.94-43.44-3.85-9.07 1.3-16.7 5.97-21.73 13.32-6.43 9.4-.36 18.09-7.76 19.03-8.7 1.1-8.2-19.56 5.88-32.01C32.57.34 60.2 2.74 82.15 8.27c8.01 2 15.07 5.68 21.56 10.46 9.35 8.13 13.55 19.96 10.47 32.25-3.57 14.25-14.29 24.69-28.54 30.23 22.6 9.76 35.55 32.06 32.02 56.29a47.4 47.4 0 0 1-38.35 39.58c-10.16 1.8-20.33.7-30.06-1.81-17.26-4.48-30.49-16.58-37.18-32.98-1.05-2.58.3-5.76 2.46-6.6a5.2 5.2 0 0 1 6.58 2.68c9.51 21.94 29.61 31.48 53.37 29.4 16.15-1.42 30.15-14.06 33.14-30.51z"/></g><defs><filter id="a" width="122.24" height="181.97" x="0" y="0" color-interpolation-filters="sRGB" filterUnits="userSpaceOnUse"><feFlood flood-opacity="0" result="BackgroundImageFix"/><feBlend in="SourceGraphic" in2="BackgroundImageFix" result="shape"/><feTurbulence baseFrequency="0.031746033579111099 0.031746033579111099" numOctaves="3" seed="640" type="fractalNoise"/><feDisplacementMap width="100%" height="100%" in="shape" result="displacedImage" scale="8" xChannelSelector="R" yChannelSelector="G"/><feMerge result="effect1_texture_1556_381"><feMergeNode in="displacedImage"/></feMerge></filter></defs></svg>
